src/lib/packages/icons/src/assets/line/ethereum-circle.svg

<svg width="24" height="24" viewBox="0 0 24 24" fill="none" xmlns="http://www.w3.org/2000/svg">
<path d="M12 1.25C6.072 1.25 1.25 6.072 1.25 12C1.25 17.928 6.072 22.75 12 22.75C17.928 22.75 22.75 17.928 22.75 12C22.75 6.072 17.928 1.25 12 1.25ZM12 21.25C6.899 21.25 2.75 17.101 2.75 12C2.75 6.899 6.899 2.75 12 2.75C17.101 2.75 21.25 6.899 21.25 12C21.25 17.101 17.101 21.25 12 21.25ZM16.715 12.465C16.712 12.456 16.715 12.446 16.712 12.437C16.707 12.423 16.696 12.413 16.69 12.399C16.678 12.37 16.672 12.34 16.657 12.312L13.136 5.92004C12.908 5.50604 12.473 5.24902 12 5.24902C11.527 5.24902 11.092 5.50604 10.864 5.92004L7.34302 12.312C7.32802 12.34 7.321 12.3699 7.31 12.3979C7.304 12.4119 7.29303 12.422 7.28802 12.436C7.28503 12.445 7.28697 12.455 7.28497 12.464C7.25997 12.549 7.24699 12.637 7.25299 12.724C7.25399 12.736 7.25801 12.747 7.26001 12.76C7.26901 12.834 7.28901 12.905 7.32001 12.974C7.33001 12.997 7.34103 13.0179 7.35303 13.0389C7.36503 13.0599 7.37101 13.0821 7.38501 13.1021L10.936 18.193C11.179 18.541 11.576 18.748 12 18.748C12.424 18.748 12.821 18.541 13.064 18.193L16.615 13.1021C16.629 13.0821 16.635 13.0589 16.647 13.0389C16.659 13.0169 16.67 12.997 16.68 12.974C16.71 12.905 16.731 12.834 16.74 12.76C16.741 12.748 16.746 12.737 16.747 12.724C16.753 12.638 16.74 12.551 16.715 12.465ZM12 6.96802L14.909 12.248L12 13.217L9.091 12.248L12 6.96802ZM12 17.099L9.909 14.1021L11.762 14.72C11.839 14.746 11.919 14.759 11.999 14.759C12.079 14.759 12.159 14.746 12.236 14.72L14.089 14.1021L12 17.099Z" fill="currentColor"/>
</svg>

<svg xmlns="http://www.w3.org/2000/svg" width="24" height="24" fill="none"><path fill="currentColor" d="M12 1.25C6.072 1.25 1.25 6.072 1.25 12S6.072 22.75 12 22.75 22.75 17.928 22.75 12 17.928 1.25 12 1.25Zm0 20c-5.101 0-9.25-4.149-9.25-9.25S6.899 2.75 12 2.75s9.25 4.149 9.25 9.25-4.149 9.25-9.25 9.25Zm4.715-8.785c-.003-.009 0-.019-.003-.028-.005-.014-.016-.024-.022-.038-.012-.029-.018-.059-.033-.087L13.136 5.92a1.296 1.296 0 0 0-2.272 0l-3.521 6.392c-.015.028-.022.058-.033.086-.006.014-.017.024-.022.038-.003.009-.001.019-.003.028a.743.743 0 0 0-.032.26c.001.012.005.023.007.036a.735.735 0 0 0 .093.279c.012.02.018.043.032.063l3.551 5.091a1.297 1.297 0 0 0 2.128 0l3.551-5.09c.014-.02.02-.044.032-.064.012-.022.023-.042.033-.065a.767.767 0 0 0 .06-.214c.001-.012.006-.023.007-.036a.744.744 0 0 0-.032-.259ZM12 6.968l2.909 5.28-2.909.969-2.909-.969L12 6.968Zm0 10.131-2.091-2.997 1.853.618a.74.74 0 0 0 .474 0l1.853-.618L12 17.1Z"/></svg>
